img/icn_chat.svg

<svg width="29" height="24" viewBox="0 0 29 24" fill="none" xmlns="http://www.w3.org/2000/svg">
<g clip-path="url(#clip0_0_152)">
<path fill-rule="evenodd" clip-rule="evenodd" d="M11.5 18C17.8513 18 23 13.9706 23 9C23 4.02944 17.8513 0 11.5 0C5.14873 0 0 4.02944 0 9C0 12.2052 2.14098 15.0192 5.36479 16.6136C5.30782 18.1598 4.94719 19.9912 3.64453 20.6213C1.71495 21.5547 7.49218 19.499 10.0103 17.9252C10.4979 17.9745 10.9952 18 11.5 18Z" fill="#2C8EDB"/>
<path fill-rule="evenodd" clip-rule="evenodd" d="M11.5 19C18.4036 19 24 14.299 24 8.50001C24 6.89447 23.571 5.3731 22.8041 4.01236C26.4858 5.51282 29 8.52663 29 12C29 15.2053 26.859 18.0192 23.6352 19.6136C23.6922 21.1598 24.0528 22.9912 25.3555 23.6213C27.2851 24.5547 21.5078 22.499 18.9897 20.9252C18.5021 20.9746 18.0048 21 17.5 21C14.7194 21 12.1694 20.2277 10.1809 18.9422C10.6144 18.9804 11.0545 19 11.5 19Z" fill="#2C8EDB"/>
</g>
<defs>
<clipPath id="clip0_0_152">
<rect width="29" height="24" fill="white"/>
</clipPath>
</defs>
</svg>

<svg width="29" height="24" fill="none" xmlns="http://www.w3.org/2000/svg"><g clip-path="url(#a)" fill-rule="evenodd" clip-rule="evenodd" fill="#2C8EDB"><path d="M11.5 18C17.851 18 23 13.97 23 9s-5.149-9-11.5-9S0 4.03 0 9c0 3.205 2.141 6.02 5.365 7.614-.057 1.546-.418 3.377-1.72 4.007-1.93.934 3.847-1.122 6.365-2.696.488.05.985.075 1.49.075Z"/><path d="M11.5 19C18.404 19 24 14.299 24 8.5a9.092 9.092 0 0 0-1.196-4.488C26.486 5.512 29 8.527 29 12c0 3.205-2.141 6.02-5.365 7.614.057 1.546.418 3.377 1.72 4.007 1.93.934-3.847-1.122-6.365-2.696-.488.05-.985.075-1.49.075-2.78 0-5.33-.772-7.32-2.058.434.038.875.058 1.32.058Z"/></g><defs><clipPath id="a"><path fill="#fff" d="M0 0h29v24H0z"/></clipPath></defs></svg>
